src/assets/img/empty_user.svg

<svg width="27" height="27" viewBox="0 0 27 27" fill="none" xmlns="http://www.w3.org/2000/svg">
<path d="M13.5001 0C10.0087 0 7.18237 2.82635 7.18237 6.31773C7.18237 9.80911 10.0087 12.6355 13.5001 12.6355C16.9915 12.6355 19.8178 9.80911 19.8178 6.31773C19.8178 2.82635 16.9915 0 13.5001 0Z" fill="#f9faffff"/>
<path d="M15.9605 13.3669H11.0394C6.08492 13.3669 2.06152 17.3903 2.06152 22.3448V26.0024C2.06152 26.5677 2.49379 26.9999 3.05906 26.9999H23.9408C24.5061 26.9999 24.9384 26.5677 24.9384 26.0024V22.3448C24.9384 17.3903 20.915 13.3669 15.9605 13.3669Z" fill="#f9faffff"/>
</svg>

<svg xmlns="http://www.w3.org/2000/svg" width="27" height="27" fill="none" viewBox="0 0 27 27"><path fill="#f9faffff" d="M13.5 0a6.315 6.315 0 0 0-6.318 6.318 6.315 6.315 0 0 0 6.318 6.318 6.315 6.315 0 0 0 6.318-6.318A6.315 6.315 0 0 0 13.5 0M15.96 13.367h-4.92c-4.955 0-8.978 4.023-8.978 8.978v3.657a.98.98 0 0 0 .997.998h20.882a.98.98 0 0 0 .997-.998v-3.657c0-4.955-4.023-8.978-8.977-8.978"/></svg>
